X:1
T:Title
%%score 1 { ( 2 4 ) | ( 3 5 ) }
L:1/8
M:4/4
K:Ab
V:1 treble nm="Akkordion"
V:2 bass nm="Grand Piano"
V:4 bass 
V:3 bass 
V:5 bass 
V:1
 z4 z2[Q:1/4=85] E2 | Ec_c=c d c2 c | cB=AB F3 _A | GdEd d c2 A | GBFB E3 E | Ec_c=c d c2 c | %6
 cB=AB d3 F | FEAB c e2 c |[M:7/8] BAc>B A3 |[M:1/8] z |[M:4/4] z8 | z8 | z8 | z8 | z8 | z8 | z8 | %17
[M:3/4] z6 |] %18
V:2
 z8 | z[K:treble] AAA[K:bass] z[K:treble] AAA | D,[K:treble]BF,B[K:bass] z[K:treble] BBB | %3
 E,GG,G z AAA | z .G3[K:treble] z4 | z[K:treble] AAA[K:bass] z[K:treble] AAA | %6
 D,[K:treble]BF,B[K:bass] z[K:treble] BBB | z AAA z AAA |[M:7/8] [DB][CA][Ec]>[DB] [CA]3 | %9
[M:1/8] [CE] |[M:4/4] .E2 z2 A4 | B4 F4 | [CE][CA][CA][Ec] eedc | B6 z2 | c4 e4 | e2 d2 F4 | %16
 EEAA GdcB |[M:3/4] [CA]6 |] %18
V:3
 z8 | z [CE][CE][CE] z [CE][CE][CE] | D,,[DF]F,,[DF] z[K:treble] [DF][DF][DF] | %3
 E,,[DE]G,,[DE] z [CE][CE][CE] | .B,,,2 .B,,,2 z [B,E][B,E][DE] | z [CE][CE][CE] z [CE][CE][CE] | %6
 D,,[DF]F,,[DF] z[K:treble] [DF][DF][DF] | z [CE][CE][CE] z [CE][CE][CE] | %8
[M:7/8] [E,,E,]2 [E,,E,]2 [A,,E,]3 |[M:1/8] [A,,A,] | %10
[M:4/4] [A,,A,][A,,A,][A,,A,][A,,A,] A,, A,,3 | [D,D][D,D][D,D][D,D] [D,A,D] [D,A,]3 | %12
 [A,,A,][A,,E,][A,,E,][A,,A,] [A,CE][A,CE][A,B,E][A,E] | %13
 [E,G,E]2 [E,G,][E,G,] [E,G,][D,B,][C,A,][B,,G,] | [A,,A,][A,,A,][A,,A,][A,,A,] [A,,C_G] A,,3 | %15
 [D,D][D,A,][D,A,][D,A,] [D,A,D] [D,A,]3 | %16
 [E,A,C][E,A,C][E,CE][E,CE] [E,B,E][E,B,E][E,A,E][E,G,D] |[M:3/4] [A,,E,]6 |] %18
V:4
 x8 | A,,2[K:treble] z2[K:bass] A,,2[K:treble] z2 | z4[K:treble][K:bass] B,,2[K:treble] z2 | %3
 z4 A,2 z2 | .B,,2 .B,,2[K:treble] [B,=DA]GGG | A,,2[K:treble] z2[K:bass] A,,2[K:treble] z2 | %6
 z4[K:treble][K:bass] B,,2[K:treble] z2 | E,2 z2 A,2 z2 |[M:7/8] x7 |[M:1/8] x | %10
[M:4/4] c-[Ec-][Ec-][Ec] [CE] [CE]3 | FFF[FA] z D3 | x8 | z2 EE EE[EA][EB] | EEEE z [C_G]3 | %15
 FFFF z D3 | x8 |[M:3/4] x6 |] %18
V:5
 x8 | A,,,2 z2 A,,,2 z2 | z4 B,,,2[K:treble] z2 | z4 A,,2 z2 | z .[B,E]3 [E,,E,]2 z2 | %5
 A,,,2 z2 A,,,2 z2 | z4 B,,,2[K:treble] z2 | E,,2 z2 A,,2 z2 |[M:7/8] x7 |[M:1/8] x |[M:4/4] x8 | %11
 x8 | x8 | x8 | x8 | x8 | x8 |[M:3/4] x6 |] %18

